packages/kaspersky-hexa-ui-icons/src/iconsSVGs/16/LinkedIn.svg

<svg width="16" height="16" viewBox="0 0 16 16" fill="none" xmlns="http://www.w3.org/2000/svg">
<path d="M12.9145 2H3.0855C2.486 2 2 2.486 2 3.0855V12.9145C2 13.514 2.486 14 3.0855 14H12.9145C13.514 14 14 13.514 14 12.9145V3.0855C14 2.486 13.514 2 12.9145 2ZM5.71331 12.3616C5.71331 12.5361 5.57188 12.6775 5.39741 12.6775H4.05272C3.87825 12.6775 3.73683 12.5361 3.73683 12.3616V6.7247C3.73683 6.55023 3.87825 6.40881 4.05272 6.40881H5.39741C5.57188 6.40881 5.71331 6.55023 5.71331 6.7247V12.3616ZM4.72507 5.87744C4.01955 5.87744 3.4476 5.3055 3.4476 4.59998C3.4476 3.89446 4.01955 3.32251 4.72507 3.32251C5.43059 3.32251 6.00253 3.89446 6.00253 4.59998C6.00253 5.3055 5.43062 5.87744 4.72507 5.87744ZM12.7406 12.387C12.7406 12.5474 12.6106 12.6775 12.4502 12.6775H11.0072C10.8468 12.6775 10.7168 12.5474 10.7168 12.387V9.74301C10.7168 9.34859 10.8325 8.01461 9.686 8.01461C8.79671 8.01461 8.61633 8.92768 8.58011 9.33743V12.387C8.58011 12.5474 8.45009 12.6775 8.28966 12.6775H6.89408C6.73369 12.6775 6.60363 12.5474 6.60363 12.387V6.69926C6.60363 6.53886 6.73369 6.40881 6.89408 6.40881H8.28966C8.45006 6.40881 8.58011 6.53886 8.58011 6.69926V7.19104C8.90986 6.69618 9.39992 6.31422 10.4433 6.31422C12.7539 6.31422 12.7406 8.47284 12.7406 9.65889V12.387Z" fill="black"/>
</svg>

<svg xmlns="http://www.w3.org/2000/svg" width="16" height="16" fill="none" viewBox="0 0 16 16"><path fill="#000" d="M12.9145 2h-9.829C2.486 2 2 2.486 2 3.0855v9.829C2 13.514 2.486 14 3.0855 14h9.829C13.514 14 14 13.514 14 12.9145v-9.829C14 2.486 13.514 2 12.9145 2M5.7133 12.3616a.316.316 0 0 1-.3159.3159H4.0527a.316.316 0 0 1-.3159-.3159V6.7247a.316.316 0 0 1 .316-.3159h1.3446a.316.316 0 0 1 .316.3159zm-.9882-6.4842c-.7056 0-1.2775-.5719-1.2775-1.2774s.572-1.2775 1.2775-1.2775 1.2774.572 1.2774 1.2775-.5719 1.2774-1.2774 1.2774m8.0155 6.5096c0 .1604-.13.2905-.2904.2905h-1.443a.2905.2905 0 0 1-.2904-.2905V9.743c0-.3944.1157-1.7284-1.0308-1.7284-.8893 0-1.0697.913-1.1059 1.3228v3.0496c0 .1604-.13.2905-.2904.2905H6.894a.2905.2905 0 0 1-.2905-.2905V6.6993c0-.1604.13-.2905.2905-.2905h1.3956c.1604 0 .2904.13.2904.2905v.4917c.3298-.4948.8198-.8768 1.8632-.8768 2.3106 0 2.2973 2.1586 2.2973 3.3447z"/></svg>
